resources/svg/group-line.svg

<svg fill="currentColor" viewBox="0 0 24 24" xmlns="http://www.w3.org/2000/svg"><path d="M2 22C2 17.5817 5.58172 14 10 14C14.4183 14 18 17.5817 18 22H16C16 18.6863 13.3137 16 10 16C6.68629 16 4 18.6863 4 22H2ZM10 13C6.685 13 4 10.315 4 7C4 3.685 6.685 1 10 1C13.315 1 16 3.685 16 7C16 10.315 13.315 13 10 13ZM10 11C12.21 11 14 9.21 14 7C14 4.79 12.21 3 10 3C7.79 3 6 4.79 6 7C6 9.21 7.79 11 10 11ZM18.2837 14.7028C21.0644 15.9561 23 18.752 23 22H21C21 19.564 19.5483 17.4671 17.4628 16.5271L18.2837 14.7028ZM17.5962 3.41321C19.5944 4.23703 21 6.20361 21 8.5C21 11.3702 18.8042 13.7252 16 13.9776V11.9646C17.6967 11.7222 19 10.264 19 8.5C19 7.11935 18.2016 5.92603 17.041 5.35635L17.5962 3.41321Z"/></svg>

<svg xmlns="http://www.w3.org/2000/svg" viewBox="0 0 24 24" fill="currentColor">
    <g>
        <path fill="none" d="M0 0h24v24H0z"/>
        <path d="M2 22a8 8 0 1 1 16 0h-2a6 6 0 1 0-12 0H2zm8-9c-3.315 0-6-2.685-6-6s2.685-6 6-6 6 2.685 6 6-2.685 6-6 6zm0-2c2.21 0 4-1.79 4-4s-1.79-4-4-4-4 1.79-4 4 1.79 4 4 4zm8.284 3.703A8.002 8.002 0 0 1 23 22h-2a6.001 6.001 0 0 0-3.537-5.473l.82-1.824zm-.688-11.29A5.5 5.5 0 0 1 21 8.5a5.499 5.499 0 0 1-5 5.478v-2.013a3.5 3.5 0 0 0 1.041-6.609l.555-1.943z"/>
    </g>
</svg>
